!!!OTL: 1737. Lied beim Hopfenpfluecken.
!!!ARE: Europa, Mitteleuropa, Deutschland; Boehmen
!!!SCT: E1737
!!!TXL: @@DE
!!!YEM: Copyright 1995, estate of Helmut Schaffrath.
**kern	**text
*ICvox	*
*M2/4	*
*k[b-]	*
*F:	*
!LO:TX:a:t=Lustig.	!
!LO:TX:a:t=Böhmisch.	!
{4c^	Jetʒt
=1	=1
8a	fahr'n
8a	wir
8a	ü-
8b-/	-bern
=2	=2
8cc	See,
16dd	ü-
16cc	-bern
8cc}	See,
{8a	jetʒt
=3	=3
8b-	fahrn
8b-	wir
8cc	ü-
8b-	-bern
=4	=4
4r}	.
{4c^	Jetʒt
=5	=5
8a	fahr'n
8a	wir
8a	ü-
8b-	-bern
=6	=6
8cc	See,
16dd	ü-
16cc	-bern
8cc}	See,
{8a	jetʒt
=7	=7
8b-	fahrn
8b-	wir
8cc	ü-
8b-	-bern
=8	=8
4a	See
8r}	.
{8cc	mit
=9	=9
8dd	ei-
8cc	-ner
8b-	höl-
8a	-ʒern
=10	=10
4b-/	Wur-
4g}	-ʒel,
=11	=11
{8b-/	Wur-
8g	-ʒel,
8b-/	Wur-
8b-/	-ʒel,
=12	=12
8ccL	Wur-
8ffJ	.
8a}	-ʒel,
{8cc	mit
=13	=13
8dd	ei-
8cc	-ner
8b-/	höl-
8a	-ʒern
=14	=14
4b-/	Wur-
8g}	-ʒel,
{8cc	kein
=15	=15
8cc	Ru-
8cc	-der
8cc	war
8cc	nicht
=16	=16
4r	.
8r}	.
{8cc	mit
=17	=17
8dd	ei-
8cc	-ner
8b-	höl-
8a	-ʒern
=18	=18
4b-/	Wur-
4g}	-ʒel,
=19	=19
{8b-/	Wur-
8g	-ʒel,
8b-/	Wur-
8b-	-ʒel,
=20	=20
8ccL	Wur-
8ffJ	.
8a}	-ʒel,
{8cc	mit
=21	=21
8dd	ei-
8cc	-ner
8b-/	höl-
8a	-ʒern
=22	=22
4b-/	Wur-
8g}	-ʒel,
{8cc	kein
=23	=23
8cc	Ru-
8cc	-der
8cc	war
8cc	nicht
=24	=24
4f}	dran.
==	==
!!!AGN: Scherz -, Spiel - Lied, Pfaenderspiel, Vexierspiel
!!!ONB: ESAC (Essen Associative Code) Database: ERK3
!!!AMT: simple duple
!!!AIN: vox
!!!EED: Helmut Schaffrath
!!!EEV: 1.0
!!!GTL: Scherz-, Spiel- und Spottlieder.
!!!URL-scan: https://rosdok.uni-rostock.de/mcrviewer/recordIdentifier/rosdok_ppn745177999/iview2/phys_0529.iview2?x=-449.8344612962892&y=400.84747084905393&scale=0.47549036216460333&rotation=0&layout=singlePageLayout
!!!ENC: Anna Maria Matuszewska
!!!EEV: 2025/08/01
*-	*-
